www/assets/icons/menu_open.svg

<svg xmlns="http://www.w3.org/2000/svg" width="24" height="24" viewBox="0 0 24 24" fill='currentColor'><path d="M3 18h13v-2H3zm0-5h10v-2H3zm0-7v2h13V6zm18 9.59L17.42 12 21 8.41 19.59 7l-5 5 5 5z"/></svg>

<svg width="24" height="24" viewBox="0 0 24 24" xmlns="http://www.w3.org/2000/svg" fill='currentColor'><path d="M3 18H16V16H3V18ZM3 13H13V11H3V13ZM3 6V8H16V6H3ZM21 15.59L17.42 12L21 8.41L19.59 7L14.59 12L19.59 17L21 15.59Z"/></svg>
